X:1
T:Persian Dance, The
T:Persian Dance, The
T:Nathaniel Gow
C:Nathaniel Gow
L:1/8
M:2/4
K:G
V:1 treble 
V:1
 d/c/ | B(B/c/) A(A/B/) | .G.G .G A/B/ |{d} c/B/c/d/{c} B/A/B/c/ | .A.A .A d/c/ | %5
 B/d/c/B/ A/c/B/A/ | GG G A/B/ | (c/B/A/G/ F/G/A/F/) | .G.G .G || (d/c/) | (Bg/f/) e(e/d/) | %11
 (d/c/).B/.c/ A(d/c/) | B(g/f/) e/d/c/B/ | .A.A .A d/c/ | Bg/f/ e/d/c/B/ | (d/c/B/c/) A(d/c/) | %16
 (B/d/c/B/) (A/c/B/A/) | GG G ||"^8va" B/c/ | dd dg | dd dg | dd (e/d/).c/.B/ | AA A B/c/ | dd dg | %24
 dd dg | e/d/c/B/ (d/c/B/A/) | GG G || %27

